!!!SOCIAL_FUNCTION:	war songs
!!!PDT:	1909
!!!OTL: No_156.krn
!!!REG: Great_Lakes
!!!LANG: Non-Tone
!!!LING_GROUP: Algonquin
**kern	**kern
*staff2	*staff1
=1-	=1-
*clefF4	*clefF4
*k[b-e-]	*k[b-e-]
*M2/4	*M2/4
8GG/L	8G\L
8GG/J	8B-\J
8GG/L	8.G\L
8GG/J	.
.	16F\Jk
=2	=2
8GG/L	4G\
8GG/J	.
8GG/L	4G\
8GG/J	.
=3||	=3||
*M3/4	*M3/4
2.r	8G\L
.	8F\J
.	8D\
.	24F\LL
.	24D\
.	24C\JJ
.	16D/LK
.	8.C;/J
=4	=4
2.r	4D\
.	4D\
.	12D^/L
.	12C^/
.	12BB-^/J
=5||	=5||
*M2/4	*M2/4
2r	8GG/L
.	8BB-/J
.	8C/L
.	8BB-/J
=6	=6
2r	8.GG/L
.	16GG/Jk
.	[4GG/
=7	=7
2r	2GG/]
==	==
*-	*-
